X:3066
T:Clancy's, Paddy
M:6/8
L:1/8
K:D Major
f|afd edB|dcd AFA|dcd ede|fef efg|!
afd edB|dcd AFA|dcd efg|fdd d2:|!
e|f3 g3|f3 fed|f3 g3|afd e2d|!
f3 g3|f3 fed|faf ede|fdd d2:|!


